public/static/img/trade/open.svg

<svg width="24" height="27" viewBox="0 0 24 27" fill="none" xmlns="http://www.w3.org/2000/svg">
<path d="M3 4.36328H21V6.5451H3V4.36328ZM3 11.9996H15V14.1815H3V11.9996ZM3 19.636H21V21.8178H3V19.636Z" fill="white"/>
</svg>

<svg width="24" height="27" fill="none" xmlns="http://www.w3.org/2000/svg"><path d="M3 4.363h18v2.182H3V4.363ZM3 12h12v2.181H3V12Zm0 7.636h18v2.182H3v-2.182Z" fill="#fff"/></svg>
